icons/icn_center.svg

<svg width="24" xmlns="http://www.w3.org/2000/svg" height="24" id="screenshot-e4f319ee-d8cb-80c4-8006-fcc2d3430c12" viewBox="0 0 24 24" xmlns:xlink="http://www.w3.org/1999/xlink" fill="none" version="1.1"><g id="shape-e4f319ee-d8cb-80c4-8006-fcc2d3430c12"><defs><clipPath id="frame-clip-e4f319ee-d8cb-80c4-8006-fcc2d3430c12-render-19" class="frame-clip frame-clip-def"><rect rx="0" ry="0" x="0" y="0" width="24" height="24" transform="matrix(1, 0, 0, 1, 0, 0)"/></clipPath></defs><g class="frame-container-wrapper" opacity="1"><g class="frame-container-blur"><g class="frame-container-shadows"><g clip-path="url(#frame-clip-e4f319ee-d8cb-80c4-8006-fcc2d3430c12-render-19)" fill="none"><g class="fills" id="fills-e4f319ee-d8cb-80c4-8006-fcc2d3430c12"><rect rx="0" ry="0" x="0" y="0" width="24" height="24" transform="matrix(1, 0, 0, 1, 0, 0)" class="frame-background"/></g><g class="frame-children"><g id="shape-e4f319ee-d8cb-80c4-8006-fcc2d3430c13" rx="0" ry="0"><g id="shape-e4f319ee-d8cb-80c4-8006-fcc2d3430c14" style="opacity: 1;"><g class="fills" id="fills-e4f319ee-d8cb-80c4-8006-fcc2d3430c14"><path d="M6,2.9998779296875C4.34326171875,2.9998779296875,3,4.3431396484375,3,5.9998779296875L3,7.4998779296875C3,7.9141845703125,3.3359375,8.2498779296875,3.75,8.2498779296875C4.1640625,8.2498779296875,4.5,7.9141845703125,4.5,7.4998779296875L4.5,5.9998779296875C4.5,5.1715087890625,5.171875,4.4998779296875,6,4.4998779296875L7.5,4.4998779296875C7.9140625,4.4998779296875,8.25,4.1641845703125,8.25,3.7498779296875C8.25,3.3355712890625,7.9140625,2.9998779296875,7.5,2.9998779296875L6,2.9998779296875Z" fill-rule="nonzero" style="fill: rgb(0, 0, 0); fill-opacity: 1;"/></g></g><g id="shape-e4f319ee-d8cb-80c4-8006-fcc2d3430c15" style="opacity: 1;"><g class="fills" id="fills-e4f319ee-d8cb-80c4-8006-fcc2d3430c15"><path d="M16.5,2.9998779296875C16.0859375,2.9998779296875,15.75,3.3355712890625,15.75,3.7498779296875C15.75,4.1641845703125,16.0859375,4.4998779296875,16.5,4.4998779296875L18,4.4998779296875C18.828125,4.4998779296875,19.5,5.1715087890625,19.5,5.9998779296875L19.5,7.4998779296875C19.5,7.9141845703125,19.8359375,8.2498779296875,20.25,8.2498779296875C20.6640625,8.2498779296875,21,7.9141845703125,21,7.4998779296875L21,5.9998779296875C21,4.3431396484375,19.65673828125,2.9998779296875,18,2.9998779296875L16.5,2.9998779296875Z" fill-rule="nonzero" style="fill: rgb(0, 0, 0); fill-opacity: 1;"/></g></g><g id="shape-e4f319ee-d8cb-80c4-8006-fcc2d3430c17" style="opacity: 1;"><g class="fills" id="fills-e4f319ee-d8cb-80c4-8006-fcc2d3430c17"><path d="M4.5,16.4998779296875C4.5,16.0855712890625,4.1640625,15.7498779296875,3.75,15.7498779296875C3.3359375,15.7498779296875,3,16.0855712890625,3,16.4998779296875L3,17.9998779296875C3,19.6566162109375,4.34326171875,20.9998779296875,6,20.9998779296875L7.5,20.9998779296875C7.9140625,20.9998779296875,8.25,20.6641845703125,8.25,20.2498779296875C8.25,19.8355712890625,7.9140625,19.4998779296875,7.5,19.4998779296875L6,19.4998779296875C5.171875,19.4998779296875,4.5,18.8282470703125,4.5,17.9998779296875L4.5,16.4998779296875Z" fill-rule="nonzero" style="fill: rgb(0, 0, 0); fill-opacity: 1;"/></g></g><g id="shape-e4f319ee-d8cb-80c4-8006-fcc2d3430c18" style="opacity: 1;"><g class="fills" id="fills-e4f319ee-d8cb-80c4-8006-fcc2d3430c18"><path d="M21,16.4998779296875C21,16.0855712890625,20.6640625,15.7498779296875,20.25,15.7498779296875C19.8359375,15.7498779296875,19.5,16.0855712890625,19.5,16.4998779296875L19.5,17.9998779296875C19.5,18.8282470703125,18.828125,19.4998779296875,18,19.4998779296875L16.5,19.4998779296875C16.0859375,19.4998779296875,15.75,19.8355712890625,15.75,20.2498779296875C15.75,20.6641845703125,16.0859375,20.9998779296875,16.5,20.9998779296875L18,20.9998779296875C19.65673828125,20.9998779296875,21,19.6566162109375,21,17.9998779296875L21,16.4998779296875Z" fill-rule="nonzero" style="fill: rgb(0, 0, 0); fill-opacity: 1;"/></g></g><g id="shape-e4f319ee-d8cb-80c4-8006-fcd8be200c6b"><g class="fills" id="fills-e4f319ee-d8cb-80c4-8006-fcd8be200c6b"><rect rx="1" ry="1" x="11" y="6.999999999999773" transform="matrix(1, 0, 0, 1, 0, 0)" width="2" height="10" style="fill: rgb(0, 0, 0); fill-opacity: 1;"/></g></g><g id="shape-e4f319ee-d8cb-80c4-8006-fcd8be200c6c"><g class="fills" id="fills-e4f319ee-d8cb-80c4-8006-fcd8be200c6c"><rect rx="1" ry="1" x="11" y="7" transform="matrix(0, 1, -1, 0, 24, 0)" width="2" height="10" style="fill: rgb(0, 0, 0); fill-opacity: 1;"/></g></g></g></g></g></g></g></g></g></svg>

<svg fill="none" viewBox="0 0 24 24"><defs><clipPath id="a" class="frame-clip frame-clip-def"><rect width="24" height="24" rx="0" ry="0"/></clipPath></defs><g class="frame-container-wrapper"><g class="frame-container-blur"><g class="frame-container-shadows" clip-path="url(#a)"><g class="fills"><rect width="24" height="24" class="frame-background" rx="0" ry="0"/></g><g class="frame-children"><path fill="#000" d="M6 2.9999c-1.6567 0-3 1.3432-3 3v1.5a.75.75 0 0 0 1.5 0v-1.5c0-.8284.6719-1.5 1.5-1.5h1.5a.75.75 0 0 0 0-1.5H6ZM16.5 2.9999a.75.75 0 0 0 0 1.5H18c.8281 0 1.5.6716 1.5 1.5v1.5a.75.75 0 0 0 1.5 0v-1.5c0-1.6568-1.3433-3-3-3h-1.5ZM4.5 16.4999a.75.75 0 0 0-1.5 0v1.5c0 1.6567 1.3433 3 3 3h1.5a.75.75 0 0 0 0-1.5H6c-.8281 0-1.5-.6717-1.5-1.5v-1.5ZM21 16.4999a.75.75 0 0 0-1.5 0v1.5c0 .8283-.6719 1.5-1.5 1.5h-1.5a.75.75 0 0 0 0 1.5H18c1.6567 0 3-1.3433 3-3v-1.5Z" class="fills"/><rect width="2" height="10" x="11" y="7" fill="#000" class="fills" rx="1" ry="1"/><rect width="2" height="10" x="11" y="7" fill="#000" class="fills" rx="1" ry="1" transform="rotate(90 12 12)"/></g></g></g></g></svg>
